fritzing/resources/parts/svg/core/icon/groundplane.svg

<?xml version="1.0" encoding="utf-8"?>
<!-- Generator: Adobe Illustrator 16.0.0, SVG Export Plug-In . SVG Version: 6.00 Build 0)  -->
<!DOCTYPE svg PUBLIC "-//W3C//DTD SVG 1.1//EN" "http://www.w3.org/Graphics/SVG/1.1/DTD/svg11.dtd">
<svg version="1.1" id="Layer_1" xmlns="http://www.w3.org/2000/svg" xmlns:xlink="http://www.w3.org/1999/xlink" x="0px" y="0px"
	 width="32px" height="32px" viewBox="0 0 32 32" enable-background="new 0 0 32 32" xml:space="preserve">
<g id="icon">
	<g id="groundplane">
		<g id="groundplane1">
			<path fill="#FFFFFF" stroke="#111111" stroke-width="1.9445" d="M-0.027-0.027v32.054h32.054V-0.027H-0.027z"/>
			<path fill="#CBC38E" d="M0,0l8,14l-6,9l6,8l7-6l5,5l11-6l-5-2l2-8l-6-6l-5,4L0,0z"/>
		</g>
	</g>
</g>
</svg>

<?xml version="1.0" encoding="utf-8"?>
<svg version="1.2" baseProfile="tiny" xmlns="http://www.w3.org/2000/svg"  x="0px" y="0px" width="32px" height="32px" viewBox="0 0 32 32">
<g id="icon"><g id="groundplane"><g id="groundplane1">
<path fill="#86A28C" stroke="#568B53" stroke-width="1.9445" d="M-0.027-0.027v32.054h32.055V-0.027H-0.027z"/>
<path fill="#FFBF00" stroke="none" stroke-width="0" d="M0,0 8,14 2,23 8,31 15,25 20,30 31,24 26,22 28,14 22,8 17,12 z"/>
</g></g></g>
</svg>
